pp/question_print.svg

<svg viewBox="0 0 20 20" fill="none" xmlns="http://www.w3.org/2000/svg" height="1em" width="1em">
  <g opacity="0.8">
    <path d="M12.7387 17.2133C12.7387 18.3178 11.8432 19.2133 10.7387 19.2133C9.63411 19.2133 8.73868 18.3178 8.73868 17.2133C8.73868 16.1087 9.63411 15.2133 10.7387 15.2133C11.8432 15.2133 12.7387 16.1087 12.7387 17.2133Z" fill="currentColor"/>
    <path fill-rule="evenodd" clip-rule="evenodd" d="M10.7098 5.76475C10.0395 5.76475 9.46488 5.96522 9.06038 6.25085C8.66959 6.52678 8.47719 6.84837 8.42132 7.1251C8.26284 7.91007 7.49802 8.41795 6.71305 8.25947C5.92807 8.101 5.42019 7.33618 5.57867 6.5512C5.80607 5.42486 6.5038 4.50597 7.38766 3.88188C8.30812 3.23194 9.47392 2.86475 10.7098 2.86475C13.2675 2.86475 15.9179 4.57476 15.9179 7.32121C15.9179 8.91038 14.9731 10.1972 13.7492 10.9466C13.0662 11.3648 12.1736 11.1502 11.7554 10.4672C11.3372 9.7843 11.5518 8.89165 12.2348 8.47345C12.8053 8.12405 13.0179 7.67955 13.0179 7.32121C13.0179 6.74681 12.3032 5.76475 10.7098 5.76475Z" fill="currentColor"/>
    <path fill-rule="evenodd" clip-rule="evenodd" d="M10.7098 9.62927C11.5106 9.62927 12.1598 10.2785 12.1598 11.0793V12.5825C12.1598 13.3833 11.5106 14.0325 10.7098 14.0325C9.90898 14.0325 9.25979 13.3833 9.25979 12.5825V11.0793C9.25979 10.2785 9.90898 9.62927 10.7098 9.62927Z" fill="currentColor"/>
    <path fill-rule="evenodd" clip-rule="evenodd" d="M14.2388 8.96651C14.6502 9.6536 14.4266 10.5441 13.7395 10.9554L11.4546 12.3234C10.7675 12.7347 9.87708 12.5112 9.46573 11.8241C9.05438 11.137 9.27791 10.2465 9.965 9.83518L12.2499 8.46724C12.937 8.05589 13.8275 8.27942 14.2388 8.96651Z" fill="currentColor"/>
  </g>
  <path d="M11 16.25C11 16.9404 10.4404 17.5 9.75 17.5C9.05964 17.5 8.5 16.9404 8.5 16.25C8.5 15.5596 9.05964 15 9.75 15C10.4404 15 11 15.5596 11 16.25Z" fill="black"/>
  <path fill-rule="evenodd" clip-rule="evenodd" d="M9.70982 4.0647C8.903 4.0647 8.18566 4.30542 7.65661 4.67898C7.14681 5.03895 6.83243 5.50471 6.73516 5.98652C6.65319 6.39255 6.25759 6.65524 5.85157 6.57327C5.44555 6.4913 5.18286 6.0957 5.26483 5.68968C5.45082 4.76842 6.02657 3.9937 6.79142 3.45365C7.58734 2.89165 8.61044 2.5647 9.70982 2.5647C12.0347 2.5647 14.2179 4.099 14.2179 6.32116C14.2179 7.61324 13.4498 8.6967 12.3836 9.34959C12.0304 9.5659 11.5687 9.45489 11.3524 9.10164C11.136 8.7484 11.2471 8.28668 11.6003 8.07037C12.3286 7.6244 12.7179 6.9766 12.7179 6.32116C12.7179 5.22247 11.536 4.0647 9.70982 4.0647Z" fill="black"/>
  <path fill-rule="evenodd" clip-rule="evenodd" d="M9.70981 9.32922C10.124 9.32922 10.4598 9.66501 10.4598 10.0792V11.5825C10.4598 11.9967 10.124 12.3325 9.70981 12.3325C9.29559 12.3325 8.95981 11.9967 8.95981 11.5825V10.0792C8.95981 9.66501 9.29559 9.32922 9.70981 9.32922Z" fill="black"/>
  <path fill-rule="evenodd" clip-rule="evenodd" d="M12.6382 8.32605C12.851 8.68144 12.7354 9.14202 12.38 9.35479L10.0951 10.7227C9.73968 10.9355 9.27909 10.8199 9.06633 10.4645C8.85356 10.1091 8.96918 9.64851 9.32457 9.43574L11.6095 8.0678C11.9649 7.85504 12.4255 7.97066 12.6382 8.32605Z" fill="black"/>
</svg>

<svg viewBox="0 0 20 20" fill="none" xmlns="http://www.w3.org/2000/svg" height="1em" width="1em">
  <g opacity=".8" fill="currentColor">
    <path d="M12.739 17.213a2 2 0 1 1-4 0 2 2 0 0 1 4 0Z"/>
    <path fill-rule="evenodd" clip-rule="evenodd" d="M10.71 5.765c-.67 0-1.245.2-1.65.486-.39.276-.583.597-.639.874a1.45 1.45 0 0 1-2.842-.574c.227-1.126.925-2.045 1.809-2.67.92-.65 2.086-1.016 3.322-1.016 2.557 0 5.208 1.71 5.208 4.456 0 1.59-.945 2.876-2.169 3.626a1.45 1.45 0 1 1-1.514-2.474c.57-.349.783-.793.783-1.152 0-.574-.715-1.556-2.308-1.556Z"/>
    <path fill-rule="evenodd" clip-rule="evenodd" d="M10.71 9.63c.8 0 1.45.648 1.45 1.45v1.502a1.45 1.45 0 0 1-2.9 0V11.08c0-.8.649-1.45 1.45-1.45Z"/>
    <path fill-rule="evenodd" clip-rule="evenodd" d="M14.239 8.967a1.45 1.45 0 0 1-.5 1.988l-2.284 1.368a1.45 1.45 0 0 1-1.49-2.488l2.285-1.368a1.45 1.45 0 0 1 1.989.5Z"/>
  </g>
  <path d="M11 16.25a1.25 1.25 0 1 1-2.5 0 1.25 1.25 0 0 1 2.5 0Z" fill="#000"/>
  <path fill-rule="evenodd" clip-rule="evenodd" d="M9.71 4.065c-.807 0-1.524.24-2.053.614-.51.36-.825.826-.922 1.308a.75.75 0 1 1-1.47-.297c.186-.922.762-1.696 1.526-2.236.796-.562 1.82-.89 2.919-.89 2.325 0 4.508 1.535 4.508 3.757 0 1.292-.768 2.376-1.834 3.029a.75.75 0 1 1-.784-1.28c.729-.446 1.118-1.093 1.118-1.749 0-1.099-1.182-2.256-3.008-2.256Zm0 5.265a.75.75 0 0 1 .75.75v1.502a.75.75 0 0 1-1.5 0V10.08a.75.75 0 0 1 .75-.75Z" fill="#000"/>
  <path fill-rule="evenodd" clip-rule="evenodd" d="M12.638 8.326a.75.75 0 0 1-.258 1.029l-2.285 1.368a.75.75 0 1 1-.77-1.287l2.285-1.368a.75.75 0 0 1 1.028.258Z" fill="#000"/>
</svg>
